X: 1263
T: B\"ol-Olles schottis i B-moll och D
C: B\"ol-Olle
O: Malung, Sweden
S: Bruce Sagan's "scanfolk" session archive
F: https://nordicfiddlesandfeet.org/Allspel/B%C3%B6l-Olles.pdf 2010-7-12
R: shottish
%S: s:3 b:16(6+5+5)
Z: 2021 John Chambers <jc:trillian.mit.edu>
M: 2/4
L: 1/16
K: Bm
|: Bcde f2f2 | (3fgf ed B4 | cdcA c2c2 | Bcdc B4 || Bcde f2f2 | (3fgf ed B4 |
| cdcA c2c2 | Bcdc B4 :: A2fe d2AF | G2G2 G2ed | c2c2 cAfe |
| d2d2 A2FG || A2fe d2AF | G2G2 G2ed | c2c2 cAfe | d2d2 d4 :|
